X: 326
T:La Bernardina
N: Derived from Jos2721-La_Bernardina.krn
C: Josquin des Prez
%%abc-version 2.0
%%abcx-abcm2ps-target-version 5.9.1 (29 Sep 2008)
%%abc-creator hum2abc beta
%%abcx-conversion-date 2019/02/12 16:15:54
%%abc-edited-by Jesse Rodin
%%abc-edited-by Jesse Rodin
%%abcx-initial-encoding-date 2010/01/01/
%%humdrum-veritas 245498838
%%humdrum-veritas-data 98532464
%%linebreak <none>
%%barnumbers 0
L: 1/4
M: 2/1
Q: 1/2=120
V: 1 clef=treble
V: 2 clef=treble-8
V: 3 clef=treble-8
K: C
[V:1] z8 | 
[V:2] z8 | 
[V:3] CDEFG2A2- | 
[V:1] z8 | 
[V:2] z8 | 
[V:3] AGc4B2 | 
[V:1] z8 | 
[V:2] CDEFG2A2- | 
[V:3] c4z2F2- | 
[V:1] z8 | 
[V:2] AGc4B2 | 
[V:3] F2E2D4 | 
[V:1] CDEFG2A2- | 
[V:2] c8- | 
[V:3] C3DE2F2- | 
[V:1] AGc4B2 | 
[V:2] c4d4 | 
[V:3] FEA2G4 | 
[V:1] c6BA | 
[V:2] e6d2 | 
[V:3] C4z4 | 
[V:1] c2d2B2c2- | 
[V:2] e2f2g2e2 | 
[V:3] A4G2A2- | 
[V:1] cBAGA2c2- | 
[V:2] f6e2 | 
[V:3] AGFED2A2- | 
[V:1] cBAGA2c2- | 
[V:2] f6e2 | 
[V:3] AGFED2A2- | 
[V:1] cBAGA4 | 
[V:2] f2g4^f2 | 
[V:3] AGFED4 | 
[V:1] G8- | 
[V:2] g8 | 
[V:3] G3AB2c2 | 
[V:1] G8 | 
[V:2] z4G4 | 
[V:3] G3AB2E2 | 
[V:1] z8 | 
[V:2] A3GA2B2 | 
[V:3] F3ED4 | 
[V:1] z4C4 | 
[V:2] c8 | 
[V:3] A8 | 
[V:1] D3CD2E2 | 
[V:2] z8 | 
[V:3] G8 | 
[V:1] F8 | 
[V:2] z4A4 | 
[V:3] F8 | 
[V:1] z8 | 
[V:2] B3AB2c2 | 
[V:3] E8 | 
[V:1] z4D4 | 
[V:2] d8 | 
[V:3] B8 | 
[V:1] E3DE2F2 | 
[V:2] z8 | 
[V:3] A8 | 
[V:1] G8 | 
[V:2] z4B4 | 
[V:3] G8 | 
[V:1] z8 | 
[V:2] c3Bc2d2 | 
[V:3] F8 | 
[V:1] z4G4 | 
[V:2] e8 | 
[V:3] E8 | 
[V:1] A3GA2B2 | 
[V:2] d6cB | 
[V:3] z4D4 | 
[V:1] c4d4- | 
[V:2] A4G4 | 
[V:3] A4B4 | 
[V:1] d2c2B2A2 | 
[V:2] g6f2 | 
[V:3] G6AB | 
[V:1] G4c4- | 
[V:2] e2d2c4 | 
[V:3] c4A4 | 
[V:1] c2BAB4 | 
[V:2] d6e2 | 
[V:3] G8 | 
[V:1] z2A3GAB | 
[V:2] f8- | 
[V:3] D3CDEFG | 
[V:1] c2d2z2G2- | 
[V:2] f4e4- | 
[V:3] A2B2c2CB, | 
[V:1] GFGAB2c2 | 
[V:2] e8 | 
[V:3] CDEFG2A2 | 
[V:1] z2F3EFG | 
[V:2] d8- | 
[V:3] B2B,A,B,CDE | 
[V:1] A2B2z2E2- | 
[V:2] d4c4- | 
[V:3] F2G2A3G | 
[V:1] EDEFG2A2 | 
[V:2] c8 | 
[V:3] ABcde2A2 | 
[V:1] z2D3CDE | 
[V:2] B8- | 
[V:3] BAGFGABc | 
[V:1] F2G2C4 | 
[V:2] B4A4 | 
[V:3] d2G2A2c2- | 
[V:1] D4E2C2- | 
[V:2] G4c3d | 
[V:3] c2B2c2A2 | 
[V:1] CDEFG2C2- | 
[V:2] e2c3def | 
[V:3] c3defg2 | 
[V:1] CDEFG2A2 | 
[V:2] g4e2f2 | 
[V:3] z2c3BA2 | 
[V:1] z2C3DEF | 
[V:2] g4c3d | 
[V:3] G2g3fed | 
[V:1] G2A2B2c2 | 
[V:2] e2f2g4 | 
[V:3] cBA2G2A2 | 
[V:1] d2e3def | 
[V:2] G2c3Bcd | 
[V:3] B2c2z2c2- | 
[V:1] e3defe2- | 
[V:2] edefg4 | 
[V:3] c8- | 
[V:1] edefedcB | 
[V:2] a4g2a2 | 
[V:3] c2F2c2A2 | 
[V:1] A2G4c2- | 
[V:2] f2g2e2f2 | 
[V:3] d2G2c2F2 | 
[V:1] c2B2c4 |]  
[V:2] d4c4 |]  
[V:3] G4C4 |]  



